src/assets/compendia/icons/tokens-core/department-command-rank-2-token.svg

<svg xmlns="http://www.w3.org/2000/svg" xml:space="preserve" style="fill-rule:evenodd;clip-rule:evenodd;stroke-linecap:round;stroke-miterlimit:1.5" viewBox="0 0 256 256"><path d="M0 0h256v256H0z" style="fill:none"/><g><circle cx="128" cy="128" r="128"/><path d="M128 0c70.645 0 128 57.355 128 128s-57.355 128-128 128S0 198.645 0 128 57.355 0 128 0m0 8C61.77 8 8 61.77 8 128s53.77 120 120 120 120-53.77 120-120S194.23 8 128 8" style="fill:#f54d3d"/><path d="m0 32.213-.877-6.967 4.836-2.204-5.25-1.461L-3.733 0l-2.442 21.581-5.248 1.461 4.559 2.204-.876 6.967 4.077-6.005z" style="fill:#f54d3d;fill-rule:nonzero" transform="translate(148.854 38)scale(5.58781)"/><circle cx="1928" cy="1439" r="9" style="fill:#f54d3d;stroke:#f54d3d;stroke-width:8px" transform="translate(-1800 -1200)"/></g></svg>

<?xml version="1.0" encoding="UTF-8" standalone="no"?>
<!DOCTYPE svg PUBLIC "-//W3C//DTD SVG 1.1//EN" "http://www.w3.org/Graphics/SVG/1.1/DTD/svg11.dtd">
<svg width="100%" height="100%" viewBox="0 0 256 256" version="1.1" xmlns="http://www.w3.org/2000/svg" xmlns:xlink="http://www.w3.org/1999/xlink" xml:space="preserve" xmlns:serif="http://www.serif.com/" style="fill-rule:evenodd;clip-rule:evenodd;stroke-linecap:round;stroke-miterlimit:1.5;">
    <g transform="matrix(1,0,0,1,-6600,-1500)">
        <g transform="matrix(1,0,0,1,6600,1500)">
            <rect id="department-command-rank-2-token" x="0" y="0" width="256" height="256" style="fill:none;"/>
            <g id="department-command-rank-2-token1" serif:id="department-command-rank-2-token">
                <circle cx="128" cy="128" r="128"/>
                <path d="M128,0C198.645,0 256,57.355 256,128C256,198.645 198.645,256 128,256C57.355,256 0,198.645 0,128C0,57.355 57.355,0 128,0ZM128,8C61.77,8 8,61.77 8,128C8,194.23 61.77,248 128,248C194.23,248 248,194.23 248,128C248,61.77 194.23,8 128,8Z" style="fill:rgb(245,77,61);"/>
                <g transform="matrix(5.58781,0,0,5.58781,148.854,38)">
                    <g id="Command">
                        <path id="Command1" serif:id="Command" d="M0,32.213L-0.877,25.246L3.959,23.042L-1.291,21.581L-3.733,0L-6.175,21.581L-11.423,23.042L-6.864,25.246L-7.74,32.213L-3.663,26.208L0,32.213Z" style="fill:rgb(245,77,61);fill-rule:nonzero;"/>
                    </g>
                </g>
                <g transform="matrix(1,0,0,1,-1800,-1200)">
                    <circle cx="1928" cy="1439" r="9" style="fill:rgb(245,77,61);stroke:rgb(245,77,61);stroke-width:8px;"/>
                </g>
            </g>
        </g>
    </g>
</svg>
